img-main/telephone.svg

<svg width="10" height="15" viewBox="0 0 10 15" fill="none" xmlns="http://www.w3.org/2000/svg">
<path d="M8.5 0H1.5C0.672848 0 0 0.628103 0 1.40025V13.5357C0 14.3079 0.672848 14.936 1.5 14.936H8.5C9.32715 14.936 10 14.3079 10 13.5357V1.40025C10 0.628103 9.32715 0 8.5 0ZM1.5 0.933498H8.5C8.77588 0.933498 9 1.14271 9 1.40025V11.202H1V1.40025C1 1.14271 1.22412 0.933498 1.5 0.933498ZM8.5 14.0025H1.5C1.22412 14.0025 1 13.7933 1 13.5357V12.1355H9V13.5357C9 13.7933 8.77588 14.0025 8.5 14.0025Z" fill="#757575"/>
</svg>

<svg fill="none" xmlns="http://www.w3.org/2000/svg"><path d="M8.5 0h-7C.673 0 0 .628 0 1.4v12.136c0 .772.673 1.4 1.5 1.4h7c.827 0 1.5-.628 1.5-1.4V1.4C10 .628 9.327 0 8.5 0zm-7 .933h7c.276 0 .5.21.5.467v9.802H1V1.4c0-.257.224-.467.5-.467zm7 13.07h-7c-.276 0-.5-.21-.5-.467v-1.4h8v1.4c0 .257-.224.466-.5.466z" fill="#757575"/></svg>
